X: 36757
T: Shelburne, The
R: reel
M: 4/4
K: Amajor
E'G'|:A'E'C'F' E'C'AC'|D'AFB AFDF|ECA,C EAC'A|B2 E'^D' E'2 F'G'|
A'E'C'F' E'C'AC'|D'AFB AFDF|EGBG D'BGB|1 AGAB A2 E'G':|2 AGAB A2 EC||
|:A,CEA C'AEC|DFBD' F'2 (3A'G'F'|E'G'F'E' D'BGB|AGAB C'AEC|
A,CEA C'AEC|DFBD' F'2 (3A'G'F'|E'G'F'E' D'BGB|1 AGAB A2 EC:|2 AGAB A2 E'G'||
|:A'E'C'E' AC'E^A|CF^AC' F'E'D'C'|BDFB D'C'BA|GEGB E'^D'F'E'|
A'E'C'E' AC'E^A|CF^AC' F'E'D'C'|BAGF EDCB,|1 A,2 A,A, A,2 E'G':|2 A,2 A,A, A,2 BA||
K:Emaj
|:GBE'B G'E'BG|AC'E'C' E'A'C'E'|BD'F'D' A'F'D'F'|E'D'E'F' G'E'BA|
GBE'B G'E'BG|AC'E'C' E'A'C'E'|BD'F'D' A'F'D'F'|1 E'D'E'F' E'2 BA:|2 E'D'E'F' E'2 E'G'||
K:Amaj
|:A'E'C'F' E'C'AC'|D'AFB AFDF|ECA,C EAC'A|B2 E'^D' E'2 F'G'|
A'E'C'F' E'C'AC'|D'AFB AFDF|EGBG D'BGB|1 AGAB A2 E'G':|2 A2 z2 HA,2 z2||

